assets/images/arrow-down.svg

<svg fill="none" height="800" viewBox="0 0 24 24" width="800" xmlns="http://www.w3.org/2000/svg"><path d="m0 0h24v24h-24z" fill="#fff"/><path clip-rule="evenodd" d="m2 12c0-5.52285 4.47715-10 10-10 5.5228 0 10 4.47715 10 10 0 5.5228-4.4772 10-10 10-5.52285 0-10-4.4772-10-10zm11-4c0-.55228-.4477-1-1-1s-1 .44772-1 1v5.5858l-1.29289-1.2929c-.39053-.3905-1.02369-.3905-1.41422 0-.39052.3905-.39052 1.0237 0 1.4142l2.91301 2.913c.015.015.0304.0296.0461.0436.1832.2063.4504.3363.748.3363s.5648-.13.748-.3363c.0157-.014.0311-.0286.0461-.0436l2.913-2.913c.3905-.3905.3905-1.0237 0-1.4142s-1.0237-.3905-1.4142 0l-1.2929 1.2929z" fill="#323232" fill-rule="evenodd"/></svg>

<?xml version="1.0" encoding="utf-8"?><!-- Uploaded to: SVG Repo, www.svgrepo.com, Generator: SVG Repo Mixer Tools -->
<svg width="800px" height="800px" viewBox="0 0 24 24" fill="none" xmlns="http://www.w3.org/2000/svg">
<rect width="24" height="24" fill="white"/>
<path fill-rule="evenodd" clip-rule="evenodd" d="M2 12C2 6.47715 6.47715 2 12 2C17.5228 2 22 6.47715 22 12C22 17.5228 17.5228 22 12 22C6.47715 22 2 17.5228 2 12ZM13 8C13 7.44772 12.5523 7 12 7C11.4477 7 11 7.44772 11 8L11 13.5858L9.70711 12.2929C9.31658 11.9024 8.68342 11.9024 8.29289 12.2929C7.90237 12.6834 7.90237 13.3166 8.29289 13.7071L11.2059 16.6201C11.2209 16.6351 11.2363 16.6497 11.252 16.6637C11.4352 16.87 11.7024 17 12 17C12.2976 17 12.5648 16.87 12.748 16.6637C12.7637 16.6497 12.7791 16.6351 12.7941 16.6201L15.7071 13.7071C16.0976 13.3166 16.0976 12.6834 15.7071 12.2929C15.3166 11.9024 14.6834 11.9024 14.2929 12.2929L13 13.5858L13 8Z" fill="#323232"/>
</svg>
